X:1
T:Cissy Strut
C:COMPOSER
Z:©2014 Finmusic/effendi.me
L:1/4
Q:1/4=100
M:4/4
%%songbook-source lots_of_jazz
K:C
%%stretchlast true
V:1 treble
%%MIDI program 0
V:1
|: "C9" z4 :: "C" c/4_B/4G/4_E/4- =E/C/ z/4 G,/4G,/4A,/4 C/4z/4A,/ |"_4x" C z "Bb" [df_b]/4[dfb]/4z/4 "F"[cfa]/4 z/4 [cfa]/4 z/ ::
"C" c/z/4G/4 c/4_B/4z/4c/4 z/4 B/4 z/ z |  c/z/4G/4 c/4_B/4G/4C/4- C/4 z/4 z/ z ::
"C9""^First Solo" z4 :|"^Solo Fill" z2 z G/4_B/c/4- |: c/4_B/4c/ _e/ z3/2 G/4B/c/4- |
c/4_B/4c/ B/ z/ z G/4B/c/4- | c/4_B/4c/ _e/ z/ z z/4 G/4B/4G/4 |1 c/4_B/4_E/4C/4- C z G/4B/c/4- :|2
c/4_B/4G/4C/4- C z2 |: "^After First Solo Play This" C4- | C3 z ::"^Next Solo" z4 ::"^Insert Above Fill" z4 :: "^After Subsequent Solos:" C4 |
C/4C/4 z/ z z2 | C4 | C/4B,/_B,/A,/ z/4 z2 :|
